packages/sources/icons/src/vitamix/instagram-fill.svg

<svg width="16" height="16" viewBox="0 0 16 16" fill="none" xmlns="http://www.w3.org/2000/svg">
<path fill-rule="evenodd" clip-rule="evenodd" d="M10.748 1.37334C10.0373 1.34001 9.81133 1.33334 8 1.33334C6.18866 1.33334 5.96266 1.34201 5.25199 1.37334C4.54133 1.40668 4.05866 1.51801 3.63333 1.68334C3.18828 1.8505 2.78511 2.11283 2.45199 2.45201C2.11253 2.78489 1.85015 3.18813 1.68333 3.63334C1.51799 4.05868 1.40666 4.54134 1.37333 5.25201C1.33999 5.96268 1.33333 6.18868 1.33333 8.00001C1.33333 9.81134 1.34199 10.0373 1.37333 10.748C1.40666 11.458 1.51799 11.942 1.68333 12.3667C1.85062 12.8117 2.11293 13.2148 2.45199 13.548C2.78501 13.8873 3.18821 14.1497 3.63333 14.3167C4.05866 14.4813 4.54199 14.5933 5.25199 14.6267C5.96266 14.66 6.18866 14.6667 8 14.6667C9.81133 14.6667 10.0373 14.658 10.748 14.6267C11.458 14.5933 11.942 14.4813 12.3667 14.3167C12.8115 14.1492 13.2146 13.8869 13.548 13.548C13.8874 13.2151 14.1498 12.8119 14.3167 12.3667C14.4813 11.9413 14.5933 11.458 14.6267 10.748C14.66 10.0373 14.6667 9.81134 14.6667 8.00001C14.6667 6.18868 14.658 5.96268 14.6267 5.25201C14.5933 4.54201 14.4813 4.05801 14.3167 3.63334C14.1493 3.1884 13.887 2.78527 13.548 2.45201C13.1773 2.08201 12.8067 1.85268 12.3667 1.68334C11.9413 1.51801 11.458 1.40668 10.748 1.37334ZM4.66666 8.00001C4.66666 6.15906 6.15905 4.66668 7.99999 4.66668C9.84094 4.66668 11.3333 6.15906 11.3333 8.00001C11.3333 9.84096 9.84094 11.3333 7.99999 11.3333C6.15905 11.3333 4.66666 9.84096 4.66666 8.00001ZM12.3333 4.50001C12.3333 4.03977 11.9602 3.66668 11.5 3.66668C11.0398 3.66668 10.6667 4.03977 10.6667 4.50001C10.6667 4.96025 11.0398 5.33334 11.5 5.33334C11.9602 5.33334 12.3333 4.96025 12.3333 4.50001ZM10 8.00001C10 6.89544 9.10456 6.00001 7.99999 6.00001C6.89543 6.00001 5.99999 6.89544 5.99999 8.00001C5.99999 9.10458 6.89543 10 7.99999 10C9.10456 10 10 9.10458 10 8.00001Z" fill="#001018"/>
</svg>

<svg width="16" height="16" fill="none" xmlns="http://www.w3.org/2000/svg"><path fill-rule="evenodd" clip-rule="evenodd" d="M10.748 1.373c-.71-.033-.937-.04-2.748-.04-1.811 0-2.037.009-2.748.04-.71.034-1.193.145-1.619.31-.445.167-.848.43-1.181.769-.34.333-.602.736-.769 1.181-.165.426-.276.908-.31 1.619-.033.71-.04.937-.04 2.748 0 1.811.009 2.037.04 2.748.034.71.145 1.194.31 1.619.168.445.43.848.769 1.181.333.34.736.602 1.181.769.426.164.909.276 1.619.31.71.033.937.04 2.748.04 1.811 0 2.037-.009 2.748-.04.71-.034 1.194-.146 1.619-.31.444-.168.848-.43 1.181-.769.34-.333.602-.736.769-1.181.164-.426.276-.909.31-1.619.033-.71.04-.937.04-2.748 0-1.811-.009-2.037-.04-2.748-.034-.71-.146-1.194-.31-1.619a3.272 3.272 0 0 0-.769-1.181 3.25 3.25 0 0 0-1.181-.769c-.426-.165-.909-.276-1.619-.31zM4.667 8a3.333 3.333 0 1 1 6.666 0 3.333 3.333 0 0 1-6.666 0zm7.666-3.5a.833.833 0 1 0-1.666 0 .833.833 0 0 0 1.666 0zM10 8a2 2 0 1 0-4 0 2 2 0 0 0 4 0z" fill="#001018"/></svg>
